static/images/icon-1-1.svg

<svg height="86" viewBox="0 0 86 86" width="86" xmlns="http://www.w3.org/2000/svg"><g fill="none" fill-rule="evenodd"><circle cx="43" cy="43" fill="#02afde" r="43"/><g transform="translate(32.376471 30.352941)"><path d="m0 19.2235294v3.642353c0 1.3410773 1.10729053 2.4282352 2.47320261 2.4282352h17.31241829c1.3659121 0 2.4732026-1.0871579 2.4732026-2.4282352v-3.642353" stroke="#fff" stroke-linecap="round" stroke-linejoin="round" stroke-width="2"/><path d="m12.1411765 15.7187517 3.3057622-3.2792454c.40625-.4029913 1.0589235-.3969415 1.4577871.0135126.3988637.4104541.3928758 1.0698819-.0133742 1.4728732l-5.0397334 4.9993078c-.4009892.3977727-1.0434237.3977727-1.4444129 0l-5.03973342-4.9993078c-.40624998-.4029913-.41223782-1.0624191-.01337419-1.4728732.39886362-.4104541 1.05153716-.4165039 1.45778715-.0135126l3.30576226 3.2792454v-14.69622354c0-.56472671.4529824-1.02252816 1.0117647-1.02252816.5587822 0 1.0117647.45780145 1.0117647 1.02252816z" fill="#fff" fill-rule="nonzero"/></g></g></svg>

<?xml version="1.0" encoding="UTF-8"?>
<svg width="86px" height="86px" viewBox="0 0 86 86" version="1.1" xmlns="http://www.w3.org/2000/svg" xmlns:xlink="http://www.w3.org/1999/xlink">
    <!-- Generator: sketchtool 46.2 (44496) - http://www.bohemiancoding.com/sketch -->
    <title>7F04F6AB-FC30-4EFB-AC62-634974AE5611</title>
    <desc>Created with sketchtool.</desc>
    <defs></defs>
    <g id="Page-1" stroke="none" stroke-width="1" fill="none" fill-rule="evenodd">
        <g id="icons" transform="translate(-759.000000, -589.000000)">
            <g id="icon1" transform="translate(759.000000, 589.000000)">
                <g>
                    <circle id="Oval-4" fill="#02AFDE" cx="43" cy="43" r="43"></circle>
                    <g id="download" transform="translate(32.376471, 30.352941)">
                        <path d="M0,19.2235294 L0,22.8658824 C0,24.2069597 1.10729053,25.2941176 2.47320261,25.2941176 L19.7856209,25.2941176 C21.151533,25.2941176 22.2588235,24.2069597 22.2588235,22.8658824 L22.2588235,19.2235294" id="Shape" stroke="#FFFFFF" stroke-width="2" stroke-linecap="round" stroke-linejoin="round"></path>
                        <path d="M12.1411765,15.7187517 L15.4469387,12.4395063 C15.8531887,12.036515 16.5058622,12.0425648 16.9047258,12.4530189 C17.3035895,12.863473 17.2976016,13.5229008 16.8913516,13.9258921 L11.8516182,18.9251999 C11.450629,19.3229726 10.8081945,19.3229726 10.4072053,18.9251999 L5.36747188,13.9258921 C4.9612219,13.5229008 4.95523406,12.863473 5.35409769,12.4530189 C5.75296131,12.0425648 6.40563485,12.036515 6.81188484,12.4395063 L10.1176471,15.7187517 L10.1176471,1.02252816 C10.1176471,0.457801451 10.5706295,0 11.1294118,0 C11.688194,0 12.1411765,0.457801451 12.1411765,1.02252816 L12.1411765,15.7187517 Z" id="Combined-Shape" fill="#FFFFFF" fill-rule="nonzero"></path>
                    </g>
                </g>
            </g>
        </g>
    </g>
</svg>
